public/avatar/shoe/119.svg

<svg xmlns:xlink="http://www.w3.org/1999/xlink" height="38.3" width="36.05" xmlns="http://www.w3.org/2000/svg"><use height="17.65" transform="translate(10.65 11.8)" width="22.25" xlink:href="#a"/><defs><g id="a" fill-rule="evenodd"><path d="M2.95-3.05h.25l.1.2Q9.75 3.6 9.05 6.4q-.25 1.45-3.6 3.2-4.8 2.65-11.95 2.3l-4.7 2.7-.3-.35q-1.65-2-1.65-6.1l.3-3.35.05-.3 2.05-.85q3.2-6 13.7-6.7" fill="#070a0b" transform="translate(13.15 3.05)"/><path d="M7.6 6.15q-.55 1.35-3.55 2.8-4.35 2-10.7 1.65h-.25l-3.85 2.25q-1.05-1.65-1.05-4.7l.25-2.7L-10 4.8l.25-.1.1-.25q.3-1.15 2.45-2.8 3.55-2.7 9.7-3.2 5.1 5.35 5.1 7.7" fill="#4c4b4d" transform="translate(13.15 3.05)"/><path d="M5.45 2.5 7.1 6q-.75 1.5-3.05 2.4-3.8 1.6-7.4 2l-2.75.15-4.65 2.3L-7.8 8.3q3.05-.95 3-2.8 1.4.3 10.25-3" fill="#29272a" transform="translate(13.15 3.05)"/><path d="M-5.25 7.7q.2-1.35-.6-3.05l-4.9.35q-.8.25.3-.6l4.95-.3.95 3.8q-.55 2-2.75 3.75l-.55-.3q2.5-3.15 2.6-3.65m1.7-3.45L-3 4q.8 2 .95 4.5l-.8.15-.7-4.4M-1.1 3.1l.65-.25Q.6 5.15.85 7.95l-.95.3-1-5.15m2.2-.9.6-.25q1.55 1.85 2.05 5.1l-.9.35L1.1 2.2M2.85 1 3.5.65q2.05 2.5 2.75 5.1-.5.4-1 .5-.4-2.05-1.45-3.8L2.85 1" fill="#070a0b" transform="translate(13.15 3.05)"/><path d="M-11.55 5.45-10.3 5l3.85-.5L-10 6.05l-.8 1.85-.55 2.3-.2-4.75m8.85-5.9q2.45-.8 4.55-1Q.3-.7-1.3-.05q-3.5 1.95-5.05 4l-3.1.15q1.85-3 6.75-4.55" fill="#767779" transform="translate(13.15 3.05)"/><path d="m-9.45 4.1 1.5-1.75Q-5.8.4-2.9-.5q-4.6 3.15-5.3 4.45l-1.25.15m1.1.55L-10.8 5.8l-.75 4.65q-.45-3.65 0-5l3.2-.8" fill="#aeaeb1" transform="translate(13.15 3.05)"/></g></defs></svg>

<?xml version="1.0" encoding="UTF-8" standalone="no"?>
<svg xmlns:xlink="http://www.w3.org/1999/xlink" height="38.3px" width="36.05px" xmlns="http://www.w3.org/2000/svg">
  <g transform="matrix(1.0, 0.0, 0.0, 1.0, 23.8, 14.85)">
    <use height="17.65" transform="matrix(1.0, 0.0, 0.0, 1.0, -13.15, -3.05)" width="22.25" xlink:href="#shape0"/>
  </g>
  <defs>
    <g id="shape0" transform="matrix(1.0, 0.0, 0.0, 1.0, 13.15, 3.05)">
      <path d="M2.95 -3.05 L3.2 -3.05 3.3 -2.85 Q9.75 3.6 9.05 6.4 8.8 7.85 5.45 9.6 0.65 12.25 -6.5 11.9 L-11.2 14.6 -11.5 14.25 Q-13.15 12.25 -13.15 8.15 L-12.85 4.8 -12.8 4.5 -10.75 3.65 Q-7.55 -2.35 2.95 -3.05" fill="#070a0b" fill-rule="evenodd" stroke="none"/>
      <path d="M7.6 6.15 Q7.05 7.5 4.05 8.95 -0.3 10.95 -6.65 10.6 L-6.9 10.6 -10.75 12.85 Q-11.8 11.2 -11.8 8.15 L-11.55 5.45 -10.0 4.8 -9.75 4.7 -9.65 4.45 Q-9.35 3.3 -7.2 1.65 -3.65 -1.05 2.5 -1.55 7.6 3.8 7.6 6.15" fill="#4c4b4d" fill-rule="evenodd" stroke="none"/>
      <path d="M5.45 2.5 L7.1 6.0 Q6.35 7.5 4.05 8.4 0.25 10.0 -3.35 10.4 L-6.1 10.55 -10.75 12.85 -7.8 8.3 Q-4.75 7.35 -4.8 5.5 -3.4 5.8 5.45 2.5" fill="#29272a" fill-rule="evenodd" stroke="none"/>
      <path d="M-5.25 7.7 Q-5.05 6.35 -5.85 4.65 L-10.75 5.0 Q-11.55 5.25 -10.45 4.4 L-5.5 4.1 -4.55 7.9 Q-5.1 9.9 -7.3 11.65 L-7.85 11.35 Q-5.35 8.2 -5.25 7.7" fill="#070a0b" fill-rule="evenodd" stroke="none"/>
      <path d="M-3.55 4.25 L-3.0 4.0 Q-2.2 6.0 -2.05 8.5 L-2.85 8.65 -3.55 4.25" fill="#070a0b" fill-rule="evenodd" stroke="none"/>
      <path d="M-1.1 3.1 L-0.45 2.85 Q0.6 5.15 0.85 7.95 L-0.1 8.25 -1.1 3.1" fill="#070a0b" fill-rule="evenodd" stroke="none"/>
      <path d="M1.1 2.2 L1.7 1.95 Q3.25 3.8 3.75 7.05 L2.85 7.4 1.1 2.2" fill="#070a0b" fill-rule="evenodd" stroke="none"/>
      <path d="M2.85 1.0 L3.5 0.65 Q5.55 3.15 6.25 5.75 5.75 6.15 5.25 6.25 4.85 4.2 3.8 2.45 L2.85 1.0" fill="#070a0b" fill-rule="evenodd" stroke="none"/>
      <path d="M-11.55 5.45 L-10.3 5.0 -6.45 4.5 -10.0 6.05 -10.8 7.9 -11.35 10.2 -11.55 5.45" fill="#767779" fill-rule="evenodd" stroke="none"/>
      <path d="M-2.7 -0.45 Q-0.25 -1.25 1.85 -1.45 0.3 -0.7 -1.3 -0.05 -4.8 1.9 -6.35 3.95 L-9.45 4.1 Q-7.6 1.1 -2.7 -0.45" fill="#767779" fill-rule="evenodd" stroke="none"/>
      <path d="M-9.45 4.1 L-7.95 2.35 Q-5.8 0.4 -2.9 -0.5 -7.5 2.65 -8.2 3.95 L-9.45 4.1" fill="#aeaeb1" fill-rule="evenodd" stroke="none"/>
      <path d="M-8.35 4.65 L-10.8 5.8 -11.55 10.45 Q-12.0 6.8 -11.55 5.45 L-8.35 4.65" fill="#aeaeb1" fill-rule="evenodd" stroke="none"/>
    </g>
  </defs>
</svg>
